X: 19
T: Foxhunter, The
Z: JACKB
S: https://thesession.org/tunes/482#setting53130
R: slip jig
M: 9/8
L: 1/8
K: Dmaj
|:F3 F2D G2E|F3 F2D E2D|F3 F2D G2B|AFD DEF E2D:|
|:B3 BAG FGA|B2E E2F G2B|ABc dcB ABc|d2D DEF E2 D:|
|:f3 f2d g2e|f3 f2d e2d|f3 f2d g2b|afd def e2 d:|
|:gfe dcB AGA|B2 EE2 FG2 B|ABc dcB ABc|d2 D DEF E2 D:|

%-------------------- TUNE SEPARATOR --------------------%

